images/portal/4933.svg

<?xml version="1.0" standalone="no"?><!DOCTYPE svg PUBLIC "-//W3C//DTD SVG 1.1//EN" "http://www.w3.org/Graphics/SVG/1.1/DTD/svg11.dtd"><svg xmlns:xlink="http://www.w3.org/1999/xlink" version="1.1" class="highcharts-root" style="font-family:arial;font-size:12px;" xmlns="http://www.w3.org/2000/svg" width="485" height="415"><desc>Created with Highstock 5.0.14</desc><defs><clipPath id="highcharts-22onvot-6"><rect x="0" y="0" width="300" height="280" fill="none"></rect></clipPath><clipPath id="highcharts-22onvot-7"><rect x="0" y="0" width="300" height="280" fill="none"></rect></clipPath></defs><rect fill="#fbfbfb" class="highcharts-background" x="0" y="0" width="485" height="415" rx="0" ry="0"></rect><rect fill="none" class="highcharts-plot-background" x="53" y="70" width="300" height="280"></rect><g class="highcharts-pane-group"></g><g class="highcharts-grid highcharts-xaxis-grid "><path fill="none" class="highcharts-grid-line" d="M 112.5 70 L 112.5 350" opacity="1"></path><path fill="none" class="highcharts-grid-line" d="M 172.5 70 L 172.5 350" opacity="1"></path><path fill="none" class="highcharts-grid-line" d="M 232.5 70 L 232.5 350" opacity="1"></path><path fill="none" class="highcharts-grid-line" d="M 292.5 70 L 292.5 350" opacity="1"></path><path fill="none" class="highcharts-grid-line" d="M 352.5 70 L 352.5 350" opacity="1"></path><path fill="none" class="highcharts-grid-line" d="M 52.5 70 L 52.5 350" opacity="1"></path></g><g class="highcharts-grid highcharts-yaxis-grid "><path fill="none" stroke="#B9CFD7" stroke-width="0.5" class="highcharts-grid-line" d="M 53 350.25 L 353 350.25" opacity="1"></path><path fill="none" stroke="#B9CFD7" stroke-width="0.5" class="highcharts-grid-line" d="M 53 322.25 L 353 322.25" opacity="1"></path><path fill="none" stroke="#B9CFD7" stroke-width="0.5" class="highcharts-grid-line" d="M 53 294.25 L 353 294.25" opacity="1"></path><path fill="none" stroke="#B9CFD7" stroke-width="0.5" class="highcharts-grid-line" d="M 53 266.25 L 353 266.25" opacity="1"></path><path fill="none" stroke="#B9CFD7" stroke-width="0.5" class="highcharts-grid-line" d="M 53 238.25 L 353 238.25" opacity="1"></path><path fill="none" stroke="#B9CFD7" stroke-width="0.5" class="highcharts-grid-line" d="M 53 210.25 L 353 210.25" opacity="1"></path><path fill="none" stroke="#B9CFD7" stroke-width="0.5" class="highcharts-grid-line" d="M 53 182.25 L 353 182.25" opacity="1"></path><path fill="none" stroke="#B9CFD7" stroke-width="0.5" class="highcharts-grid-line" d="M 53 154.25 L 353 154.25" opacity="1"></path><path fill="none" stroke="#B9CFD7" stroke-width="0.5" class="highcharts-grid-line" d="M 53 126.25 L 353 126.25" opacity="1"></path><path fill="none" stroke="#B9CFD7" stroke-width="0.5" class="highcharts-grid-line" d="M 53 98.25 L 353 98.25" opacity="1"></path><path fill="none" stroke="#B9CFD7" stroke-width="0.5" class="highcharts-grid-line" d="M 53 69.75 L 353 69.75" opacity="1"></path></g><rect fill="none" class="highcharts-plot-border" x="53" y="70" width="300" height="280"></rect><g class="highcharts-axis highcharts-xaxis "><path fill="none" class="highcharts-tick" stroke="#FFFFFF" stroke-width="1" d="M 112.5 350 L 112.5 360" opacity="1"></path><path fill="none" class="highcharts-tick" stroke="#FFFFFF" stroke-width="1" d="M 172.5 350 L 172.5 360" opacity="1"></path><path fill="none" class="highcharts-tick" stroke="#FFFFFF" stroke-width="1" d="M 232.5 350 L 232.5 360" opacity="1"></path><path fill="none" class="highcharts-tick" stroke="#FFFFFF" stroke-width="1" d="M 292.5 350 L 292.5 360" opacity="1"></path><path fill="none" class="highcharts-tick" stroke="#FFFFFF" stroke-width="1" d="M 353.5 350 L 353.5 360" opacity="1"></path><path fill="none" class="highcharts-tick" stroke="#FFFFFF" stroke-width="1" d="M 52.5 350 L 52.5 360" opacity="1"></path><path fill="none" class="highcharts-axis-line" stroke="#B9CFD7" stroke-width="0.5" d="M 53 350.25 L 353 350.25"></path></g><g class="highcharts-axis highcharts-yaxis "><path fill="none" class="highcharts-axis-line" d="M 53 70 L 53 350"></path></g><g class="highcharts-series-group"><g class="highcharts-series highcharts-series-0 highcharts-column-series highcharts-color-undefined " transform="translate(53,70) scale(1 1)" clip-path="url(#highcharts-22onvot-7)"><rect x="16" y="256" width="29" height="25" fill="#007A2F" class="highcharts-point"></rect><rect x="76" y="241" width="29" height="40" fill="#007A2F" class="highcharts-point"></rect><rect x="136" y="252" width="29" height="29" fill="#007A2F" class="highcharts-point"></rect><rect x="196" y="245" width="29" height="36" fill="#007A2F" class="highcharts-point"></rect><rect x="256" y="229" width="29" height="52" fill="#007A2F" class="highcharts-point"></rect></g><g class="highcharts-markers highcharts-series-0 highcharts-column-series highcharts-color-undefined " transform="translate(53,70) scale(1 1)" clip-path="none"></g><g class="highcharts-series highcharts-series-1 highcharts-column-series highcharts-color-undefined " transform="translate(53,70) scale(1 1)" clip-path="url(#highcharts-22onvot-7)"><rect x="16" y="169" width="29" height="87" fill="#73BA7C" class="highcharts-point"></rect><rect x="76" y="145" width="29" height="96" fill="#73BA7C" class="highcharts-point"></rect><rect x="136" y="156" width="29" height="96" fill="#73BA7C" class="highcharts-point"></rect><rect x="196" y="134" width="29" height="111" fill="#73BA7C" class="highcharts-point"></rect><rect x="256" y="108" width="29" height="121" fill="#73BA7C" class="highcharts-point"></rect></g><g class="highcharts-markers highcharts-series-1 highcharts-column-series highcharts-color-undefined " transform="translate(53,70) scale(1 1)" clip-path="none"></g><g class="highcharts-series highcharts-series-2 highcharts-column-series highcharts-color-undefined " transform="translate(53,70) scale(1 1)" clip-path="url(#highcharts-22onvot-7)"><rect x="16" y="169" width="29" height="0" fill="#C8C8C8" class="highcharts-point"></rect><rect x="76" y="145" width="29" height="0" fill="#C8C8C8" class="highcharts-point"></rect><rect x="136" y="156" width="29" height="0" fill="#C8C8C8" class="highcharts-point"></rect><rect x="196" y="134" width="29" height="0" fill="#C8C8C8" class="highcharts-point"></rect><rect x="256" y="105" width="29" height="3" fill="#C8C8C8" class="highcharts-point"></rect></g><g class="highcharts-markers highcharts-series-2 highcharts-column-series highcharts-color-undefined " transform="translate(53,70) scale(1 1)" clip-path="none"></g><g class="highcharts-series highcharts-series-3 highcharts-column-series highcharts-color-undefined " transform="translate(53,70) scale(1 1)" clip-path="url(#highcharts-22onvot-7)"><rect x="16" y="72" width="29" height="97" fill="#FFBB58" class="highcharts-point"></rect><rect x="76" y="56" width="29" height="89" fill="#FFBB58" class="highcharts-point"></rect><rect x="136" y="62" width="29" height="94" fill="#FFBB58" class="highcharts-point"></rect><rect x="196" y="40" width="29" height="94" fill="#FFBB58" class="highcharts-point"></rect><rect x="256" y="21" width="29" height="84" fill="#FFBB58" class="highcharts-point"></rect></g><g class="highcharts-markers highcharts-series-3 highcharts-column-series highcharts-color-undefined " transform="translate(53,70) scale(1 1)" clip-path="none"></g><g class="highcharts-series highcharts-series-4 highcharts-column-series highcharts-color-undefined " transform="translate(53,70) scale(1 1)" clip-path="url(#highcharts-22onvot-7)"><rect x="16" y="0" width="29" height="72" fill="#FF8028" class="highcharts-point"></rect><rect x="76" y="0" width="29" height="56" fill="#FF8028" class="highcharts-point"></rect><rect x="136" y="0" width="29" height="62" fill="#FF8028" class="highcharts-point"></rect><rect x="196" y="0" width="29" height="40" fill="#FF8028" class="highcharts-point"></rect><rect x="256" y="0" width="29" height="21" fill="#FF8028" class="highcharts-point"></rect></g><g class="highcharts-markers highcharts-series-4 highcharts-column-series highcharts-color-undefined " transform="translate(53,70) scale(1 1)" clip-path="none"></g></g><text x="10" text-anchor="start" class="highcharts-title" style="color:#000000;font-size:14px;font-weight:bold;fill:#000000;" y="21"><tspan>Interesse an der Politik in Basel-Stadt (18- bis 29-Jährige)</tspan></text><text x="10" text-anchor="start" class="highcharts-subtitle" style="color:#000000;font-size:12px;fill:#000000;" y="40"><tspan>«Wie stark interessieren Sie sich für die Politik im Kanton Basel-Stadt?» – nur</tspan><tspan dy="15" x="10">Befragte im Alter zwischen 18 und 29 Jahren</tspan><title>«Wie stark interessieren Sie sich für die Politik im Kanton Basel-Stadt?» – nur Befragte im Alter zwischen 18 und 29 Jahren</title></text><g class="highcharts-legend" transform="translate(365,137)"><rect fill="none" class="highcharts-legend-box" rx="0" ry="0" x="0" y="0" width="110" height="121" visibility="visible"></rect><g><g><g class="highcharts-legend-item highcharts-column-series highcharts-color-undefined highcharts-series-4" transform="translate(8,3)"><text x="21" style="color:#333333;font-size:12px;font-weight:normal;cursor:pointer;fill:#333333;" text-anchor="start" y="15"><tspan>Gar nicht</tspan></text><rect x="2" y="4" width="12" height="12" fill="#FF8028" class="highcharts-point"></rect></g><g class="highcharts-legend-item highcharts-column-series highcharts-color-undefined highcharts-series-3" transform="translate(8,22)"><text x="21" y="15" style="color:#333333;font-size:12px;font-weight:normal;cursor:pointer;fill:#333333;" text-anchor="start"><tspan>Eher nicht</tspan></text><rect x="2" y="4" width="12" height="12" fill="#FFBB58" class="highcharts-point"></rect></g><g class="highcharts-legend-item highcharts-column-series highcharts-color-undefined highcharts-series-2" transform="translate(8,41)"><text x="21" y="15" style="color:#333333;font-size:12px;font-weight:normal;cursor:pointer;fill:#333333;" text-anchor="start"><tspan>Weiss nicht /</tspan><tspan x="21" dy="15">keine Angabe</tspan></text><rect x="2" y="4" width="12" height="12" fill="#C8C8C8" class="highcharts-point"></rect></g><g class="highcharts-legend-item highcharts-column-series highcharts-color-undefined highcharts-series-1" transform="translate(8,75)"><text x="21" y="15" style="color:#333333;font-size:12px;font-weight:normal;cursor:pointer;fill:#333333;" text-anchor="start"><tspan>Eher stark</tspan></text><rect x="2" y="4" width="12" height="12" fill="#73BA7C" class="highcharts-point"></rect></g><g class="highcharts-legend-item highcharts-column-series highcharts-color-undefined highcharts-series-0" transform="translate(8,94)"><text x="21" y="15" style="color:#333333;font-size:12px;font-weight:normal;cursor:pointer;fill:#333333;" text-anchor="start"><tspan>Sehr stark</tspan></text><rect x="2" y="4" width="12" height="12" fill="#007A2F" class="highcharts-point"></rect></g></g></g></g><g class="highcharts-axis-labels highcharts-xaxis-labels "><text x="83" style="color:#000000;cursor:default;font-size:11px;fill:#000000;" text-anchor="middle" transform="translate(0,0)" y="369" opacity="1"><tspan>2003</tspan><tspan x="83" dy="14">(N=208)</tspan></text><text x="143" style="color:#000000;cursor:default;font-size:11px;fill:#000000;" text-anchor="middle" transform="translate(0,0)" y="369" opacity="1"><tspan>2005</tspan><tspan x="143" dy="14">(N=223)</tspan></text><text x="203" style="color:#000000;cursor:default;font-size:11px;fill:#000000;" text-anchor="middle" transform="translate(0,0)" y="369" opacity="1"><tspan>2007</tspan><tspan x="203" dy="14">(N=212)</tspan></text><text x="263" style="color:#000000;cursor:default;font-size:11px;fill:#000000;" text-anchor="middle" transform="translate(0,0)" y="369" opacity="1"><tspan>2011</tspan><tspan x="263" dy="14">(N=179)</tspan></text><text x="323" style="color:#000000;cursor:default;font-size:11px;fill:#000000;" text-anchor="middle" transform="translate(0,0)" y="369" opacity="1"><tspan>2015</tspan><tspan x="323" dy="14">(N=97)</tspan></text></g><g class="highcharts-axis-labels highcharts-yaxis-labels "><text x="38" style="color:#000000;cursor:default;font-size:11px;fill:#000000;" text-anchor="end" transform="translate(0,0)" y="355" opacity="1"><tspan>0%</tspan></text><text x="38" style="color:#000000;cursor:default;font-size:11px;fill:#000000;" text-anchor="end" transform="translate(0,0)" y="327" opacity="1"><tspan>10%</tspan></text><text x="38" style="color:#000000;cursor:default;font-size:11px;fill:#000000;" text-anchor="end" transform="translate(0,0)" y="299" opacity="1"><tspan>20%</tspan></text><text x="38" style="color:#000000;cursor:default;font-size:11px;fill:#000000;" text-anchor="end" transform="translate(0,0)" y="271" opacity="1"><tspan>30%</tspan></text><text x="38" style="color:#000000;cursor:default;font-size:11px;fill:#000000;" text-anchor="end" transform="translate(0,0)" y="243" opacity="1"><tspan>40%</tspan></text><text x="38" style="color:#000000;cursor:default;font-size:11px;fill:#000000;" text-anchor="end" transform="translate(0,0)" y="215" opacity="1"><tspan>50%</tspan></text><text x="38" style="color:#000000;cursor:default;font-size:11px;fill:#000000;" text-anchor="end" transform="translate(0,0)" y="187" opacity="1"><tspan>60%</tspan></text><text x="38" style="color:#000000;cursor:default;font-size:11px;fill:#000000;" text-anchor="end" transform="translate(0,0)" y="159" opacity="1"><tspan>70%</tspan></text><text x="38" style="color:#000000;cursor:default;font-size:11px;fill:#000000;" text-anchor="end" transform="translate(0,0)" y="131" opacity="1"><tspan>80%</tspan></text><text x="38" style="color:#000000;cursor:default;font-size:11px;fill:#000000;" text-anchor="end" transform="translate(0,0)" y="103" opacity="1"><tspan>90%</tspan></text><text x="38" style="color:#000000;cursor:default;font-size:11px;fill:#000000;" text-anchor="end" transform="translate(0,0)" y="75" opacity="1"><tspan>100%</tspan></text></g><text x="10" class="highcharts-credits" text-anchor="start" style="cursor:default;color:#000000;font-size:10px;fill:#000000;" y="400"><tspan>Quelle: Statistisches Amt Basel-Stadt, kantonale Bevölkerungsbefragung: F20</tspan></text></svg>

<svg class="highcharts-root" xmlns="http://www.w3.org/2000/svg" width="485" height="415" font-family="arial" font-size="12">
    <defs>
        <clipPath id="a">
            <path fill="none" d="M0 0h300v280H0z"/>
        </clipPath>
    </defs>
    <rect fill="#fbfbfb" class="highcharts-background" width="485" height="415" rx="0" ry="0"/>
    <path fill="none" class="highcharts-plot-background" d="M53 70h300v280H53z"/>
    <g class="highcharts-grid highcharts-xaxis-grid">
        <path fill="none" class="highcharts-grid-line" d="M112.5 70v280m60-280v280m60-280v280m60-280v280m60-280v280M52.5 70v280"/>
    </g>
    <g class="highcharts-grid highcharts-yaxis-grid">
        <path fill="none" stroke="#B9CFD7" stroke-width=".5" class="highcharts-grid-line" d="M53 350.25h300m-300-28h300m-300-28h300m-300-28h300m-300-28h300m-300-28h300m-300-28h300m-300-28h300m-300-28h300m-300-28h300M53 69.75h300"/>
    </g>
    <path fill="none" class="highcharts-plot-border" d="M53 70h300v280H53z"/>
    <g class="highcharts-axis highcharts-xaxis">
        <path fill="none" class="highcharts-tick" stroke="#FFF" d="M112.5 350v10m60-10v10m60-10v10m60-10v10m61-10v10m-301-10v10"/>
        <path fill="none" class="highcharts-axis-line" stroke="#B9CFD7" stroke-width=".5" d="M53 350.25h300"/>
    </g>
    <g class="highcharts-axis highcharts-yaxis">
        <path fill="none" class="highcharts-axis-line" d="M53 70v280"/>
    </g>
    <g class="highcharts-series-group">
        <g class="highcharts-series highcharts-series-0 highcharts-column-series highcharts-color-undefined" transform="translate(53 70)" clip-path="url(#a)">
            <path fill="#007A2F" class="highcharts-point" d="M16 256h29v25H16zm60-15h29v40H76zm60 11h29v29h-29zm60-7h29v36h-29zm60-16h29v52h-29z"/>
        </g>
        <g class="highcharts-series highcharts-series-1 highcharts-column-series highcharts-color-undefined" transform="translate(53 70)" clip-path="url(#a)">
            <path fill="#73BA7C" class="highcharts-point" d="M16 169h29v87H16zm60-24h29v96H76zm60 11h29v96h-29zm60-22h29v111h-29zm60-26h29v121h-29z"/>
        </g>
        <g class="highcharts-series highcharts-series-2 highcharts-column-series highcharts-color-undefined" transform="translate(53 70)" clip-path="url(#a)">
            <path fill="#C8C8C8" class="highcharts-point" d="M256 105h29v3h-29z"/>
        </g>
        <g class="highcharts-series highcharts-series-3 highcharts-column-series highcharts-color-undefined" transform="translate(53 70)" clip-path="url(#a)">
            <path fill="#FFBB58" class="highcharts-point" d="M16 72h29v97H16zm60-16h29v89H76zm60 6h29v94h-29zm60-22h29v94h-29zm60-19h29v84h-29z"/>
        </g>
        <g class="highcharts-series highcharts-series-4 highcharts-column-series highcharts-color-undefined" transform="translate(53 70)" clip-path="url(#a)">
            <path fill="#FF8028" class="highcharts-point" d="M16 0h29v72H16zm60 0h29v56H76zm60 0h29v62h-29zm60 0h29v40h-29zm60 0h29v21h-29z"/>
        </g>
    </g>
    <text x="10" class="highcharts-title" y="21" color="#000" font-size="14" font-weight="700">
        <tspan>Interesse an der Politik in Basel-Stadt (18- bis 29-Jährige)</tspan>
    </text>
    <text x="10" class="highcharts-subtitle" y="40" color="#000">
        <tspan>«Wie stark interessieren Sie sich für die Politik im Kanton Basel-Stadt?» – nur</tspan><tspan dy="15" x="10">Befragte im Alter zwischen 18 und 29 Jahren</tspan><title>«Wie stark interessieren Sie sich für die Politik im Kanton Basel-Stadt?» – nur Befragte im Alter zwischen 18 und 29 Jahren</title>
    </text>
    <g class="highcharts-legend" transform="translate(365 137)">
        <rect fill="none" class="highcharts-legend-box" rx="0" ry="0" width="110" height="121"/>
        <g class="highcharts-legend-item highcharts-column-series highcharts-color-undefined highcharts-series-4">
            <text x="21" y="15" color="#333" font-weight="400" cursor="pointer" fill="#333" transform="translate(8 3)">
                <tspan>Gar nicht</tspan>
            </text>
            <path fill="#FF8028" class="highcharts-point" d="M10 7h12v12H10z"/>
        </g>
        <g class="highcharts-legend-item highcharts-column-series highcharts-color-undefined highcharts-series-3">
            <text x="21" y="15" color="#333" font-weight="400" cursor="pointer" fill="#333" transform="translate(8 22)">
                <tspan>Eher nicht</tspan>
            </text>
            <path fill="#FFBB58" class="highcharts-point" d="M10 26h12v12H10z"/>
        </g>
        <g class="highcharts-legend-item highcharts-column-series highcharts-color-undefined highcharts-series-2">
            <text x="21" y="15" color="#333" font-weight="400" cursor="pointer" fill="#333" transform="translate(8 41)">
                <tspan>Weiss nicht /</tspan><tspan x="21" dy="15">keine Angabe</tspan>
            </text>
            <path fill="#C8C8C8" class="highcharts-point" d="M10 45h12v12H10z"/>
        </g>
        <g class="highcharts-legend-item highcharts-column-series highcharts-color-undefined highcharts-series-1">
            <text x="21" y="15" color="#333" font-weight="400" cursor="pointer" fill="#333" transform="translate(8 75)">
                <tspan>Eher stark</tspan>
            </text>
            <path fill="#73BA7C" class="highcharts-point" d="M10 79h12v12H10z"/>
        </g>
        <g class="highcharts-legend-item highcharts-column-series highcharts-color-undefined highcharts-series-0">
            <text x="21" y="15" color="#333" font-weight="400" cursor="pointer" fill="#333" transform="translate(8 94)">
                <tspan>Sehr stark</tspan>
            </text>
            <path fill="#007A2F" class="highcharts-point" d="M10 98h12v12H10z"/>
        </g>
    </g>
    <g class="highcharts-axis-labels highcharts-xaxis-labels" text-anchor="middle" color="#000" cursor="default" font-size="11">
        <text x="83" y="369">
            <tspan>2003</tspan><tspan x="83" dy="14">(N=208)</tspan>
        </text>
        <text x="143" y="369">
            <tspan>2005</tspan><tspan x="143" dy="14">(N=223)</tspan>
        </text>
        <text x="203" y="369">
            <tspan>2007</tspan><tspan x="203" dy="14">(N=212)</tspan>
        </text>
        <text x="263" y="369">
            <tspan>2011</tspan><tspan x="263" dy="14">(N=179)</tspan>
        </text>
        <text x="323" y="369">
            <tspan>2015</tspan><tspan x="323" dy="14">(N=97)</tspan>
        </text>
    </g>
    <g class="highcharts-axis-labels highcharts-yaxis-labels" text-anchor="end" color="#000" cursor="default" font-size="11">
        <text x="38" y="355">
            <tspan>0%</tspan>
        </text>
        <text x="38" y="327">
            <tspan>10%</tspan>
        </text>
        <text x="38" y="299">
            <tspan>20%</tspan>
        </text>
        <text x="38" y="271">
            <tspan>30%</tspan>
        </text>
        <text x="38" y="243">
            <tspan>40%</tspan>
        </text>
        <text x="38" y="215">
            <tspan>50%</tspan>
        </text>
        <text x="38" y="187">
            <tspan>60%</tspan>
        </text>
        <text x="38" y="159">
            <tspan>70%</tspan>
        </text>
        <text x="38" y="131">
            <tspan>80%</tspan>
        </text>
        <text x="38" y="103">
            <tspan>90%</tspan>
        </text>
        <text x="38" y="75">
            <tspan>100%</tspan>
        </text>
    </g>
    <text x="10" class="highcharts-credits" y="400" cursor="default" color="#000" font-size="10">
        <tspan>Quelle: Statistisches Amt Basel-Stadt, kantonale Bevölkerungsbefragung: F20</tspan>
    </text>
</svg>
